apps/site/public/icons/companies/OpenAi.svg

<svg width="49" height="48" viewBox="0 0 49 48" fill="none" xmlns="http://www.w3.org/2000/svg">
<path d="M18.5597 17.4566V12.9006C18.5597 12.5169 18.7037 12.229 19.0392 12.0374L28.1995 6.76204C29.4464 6.0427 30.9331 5.70717 32.4676 5.70717C38.2224 5.70717 41.8675 10.1673 41.8675 14.915C41.8675 15.2506 41.8675 15.6343 41.8194 16.018L32.3236 10.4548C31.7482 10.1193 31.1725 10.1193 30.5971 10.4548L18.5597 17.4566ZM39.949 35.2012V24.3145C39.949 23.643 39.661 23.1634 39.0857 22.8278L27.0483 15.8259L30.9808 13.5718C31.3164 13.3802 31.6043 13.3802 31.9399 13.5718L41.1001 18.8471C43.738 20.382 45.5122 23.643 45.5122 26.808C45.5122 30.4527 43.3543 33.8099 39.949 35.2008V35.2012ZM15.7302 25.6097L11.7976 23.3078C11.4621 23.1162 11.3181 22.8283 11.3181 22.4446V11.8939C11.3181 6.76254 15.2506 2.87767 20.5741 2.87767C22.5886 2.87767 24.4585 3.54924 26.0416 4.74814L16.5939 10.2155C16.0185 10.5511 15.7307 11.0306 15.7307 11.7023V25.6101L15.7302 25.6097ZM24.1949 30.5013L18.5597 27.3361V20.6223L24.1949 17.4571L29.8297 20.6223V27.3361L24.1949 30.5013ZM27.8157 45.0807C25.8013 45.0807 23.9313 44.4091 22.3483 43.2103L31.7959 37.7429C32.3713 37.4073 32.6592 36.9278 32.6592 36.2561V22.3483L36.6399 24.6502C36.9754 24.8418 37.1195 25.1296 37.1195 25.5134V36.0641C37.1195 41.1954 33.1387 45.0803 27.8157 45.0803V45.0807ZM16.4495 34.3861L7.28928 29.1108C4.65139 27.5759 2.87717 24.315 2.87717 21.1499C2.87717 17.4571 5.08327 14.1481 8.48808 12.7572V23.6915C8.48808 24.3631 8.77604 24.8427 9.35136 25.1783L21.3411 32.1319L17.4086 34.3861C17.073 34.5777 16.7851 34.5777 16.4495 34.3861ZM15.9223 42.2512C10.503 42.2512 6.52236 38.1747 6.52236 33.1391C6.52236 32.7554 6.57044 32.3717 6.61811 31.988L16.0658 37.4554C16.6411 37.791 17.2169 37.791 17.7923 37.4554L29.8297 30.5018V35.0578C29.8297 35.4415 29.6858 35.7294 29.3501 35.921L20.19 41.1963C18.943 41.9157 17.4562 42.2512 15.9218 42.2512H15.9223ZM27.8157 47.958C33.6187 47.958 38.4622 43.8337 39.5656 38.3663C44.9369 36.9754 48.3899 31.9398 48.3899 26.8085C48.3899 23.4513 46.9513 20.1904 44.3615 17.8403C44.6012 16.8331 44.7452 15.8259 44.7452 14.8192C44.7452 7.96135 39.1819 2.82949 32.7554 2.82949C31.4609 2.82949 30.2139 3.0211 28.9669 3.45299C26.8085 1.34273 23.8351 0 20.5741 0C14.7712 0 9.92767 4.12415 8.82422 9.59154C3.45299 10.9824 0 16.018 0 21.1494C0 24.5066 1.43858 27.7675 4.0284 30.1175C3.78862 31.1247 3.64469 32.1319 3.64469 33.1387C3.64469 39.9966 9.20792 45.1284 15.6343 45.1284C16.929 45.1284 18.176 44.9368 19.423 44.5049C21.5809 46.6152 24.5543 47.958 27.8157 47.958Z" fill="#161D2B"/>
</svg>

<svg xmlns="http://www.w3.org/2000/svg" width="49" height="48" fill="none" viewBox="0 0 49 48"><path fill="#161d2b" d="M18.56 17.457V12.9c0-.384.144-.672.48-.864l9.16-5.275c1.246-.72 2.733-1.055 4.268-1.055 5.754 0 9.4 4.46 9.4 9.208 0 .336 0 .72-.049 1.103l-9.495-5.563q-.864-.504-1.727 0zM39.949 35.2V24.314c0-.671-.288-1.15-.863-1.486l-12.038-7.002 3.933-2.254c.335-.192.623-.192.959 0l9.16 5.275c2.638 1.535 4.412 4.796 4.412 7.961 0 3.645-2.158 7.002-5.563 8.393M15.73 25.61l-3.932-2.302c-.336-.192-.48-.48-.48-.863V11.894c0-5.131 3.933-9.016 9.256-9.016 2.015 0 3.884.671 5.468 1.87l-9.448 5.468c-.576.335-.863.815-.863 1.486zm8.465 4.891-5.635-3.165v-6.714l5.635-3.165 5.635 3.165v6.714zm3.62 14.58c-2.014 0-3.884-.672-5.467-1.87l9.448-5.468c.575-.336.863-.815.863-1.487V22.348l3.98 2.302c.336.192.48.48.48.863v10.551c0 5.131-3.98 9.016-9.303 9.016M16.45 34.386l-9.16-5.275c-2.639-1.535-4.413-4.796-4.413-7.961 0-3.693 2.206-7.002 5.611-8.393v10.935c0 .671.288 1.15.863 1.486l11.99 6.954-3.932 2.254c-.336.192-.624.192-.96 0m-.528 7.865c-5.419 0-9.4-4.076-9.4-9.112 0-.384.048-.767.096-1.151l9.448 5.467q.862.504 1.726 0l12.038-6.953v4.556c0 .383-.144.671-.48.863l-9.16 5.275c-1.247.72-2.734 1.055-4.268 1.055m11.894 5.707c5.803 0 10.646-4.124 11.75-9.592 5.37-1.39 8.824-6.426 8.824-11.558 0-3.357-1.439-6.618-4.029-8.968.24-1.007.384-2.014.384-3.02 0-6.859-5.563-11.99-11.99-11.99-1.294 0-2.541.191-3.788.623C26.809 1.343 23.835 0 20.574 0 14.771 0 9.928 4.124 8.824 9.592 3.453 10.982 0 16.018 0 21.149c0 3.358 1.439 6.618 4.028 8.968-.24 1.008-.383 2.015-.383 3.022 0 6.858 5.563 11.99 11.99 11.99 1.294 0 2.541-.192 3.788-.624 2.158 2.11 5.131 3.453 8.393 3.453"/></svg>
